X:1
T:Title
%%score { ( 1 3 ) | ( 2 4 ) }
L:1/8
M:6/8
K:Ab
V:1 treble nm="Grand Piano"
V:3 treble 
V:2 bass 
V:4 bass 
V:1
 z3 z2[Q:1/4=100] E | [CA]2 [CA] [DF]2 [DE] | [CA]3- [CA]2 [CA] | c2 c B2 A | c3- c2 c | %5
 [Ge]2 [Fd] [Ec]2 [DB] | [CA]2 [CA] [DG]2 [CA] | B6- | B6 | [CA]2 [CA] [DF]2 [DE] | %10
 [CA]3- [CA]2 [CA] | c2 c B2 A | c3- c2 c | [Ge]2 [Fd] [Ec]2 [Fd] | [Ec]3 [DB]3 | A6- | A6 | %17
 [Ec][Fd][Ec] [=DB]2 [DF] | [DB]6 | BcB [CA]2 C |[M:5/8] [CE]-[CE]- [CE]3 |[M:1/8] [CE] | %22
[M:3/4] [DF]2 [EG] [FA]2 [DF] | [CE]2 [CA] [Ec]2 [CA] | B3 B3 | c2 [A=d] [Ge]2 [F_d] | %26
 [Ec][Fd] [Ec] [=DB]2 [DF] | [DB]6 | Bc B [CA]2 C |[M:5/8] [CE]-[CE]- [CE]3 |[M:1/8] [CE] | %31
[M:3/4] [DF]2 [DG] [CA]2 B | c2 d e2 [FAd] | [EAc]3 .[DGB]3 |[M:5/8] [CEA]-[CEA]- [CEA]3 |] %35
V:2
 z3 z2 E, | [A,,E,]2 [A,,E,] [A,,A,]2 [A,,A,] | [A,,E,]3- [A,,E,]2 [A,,E,] | %3
 [A,E]2 [A,E] [G,B,E]2 [A,CE] | [A,E]3- [A,E]2 [A,E] | [E,B,]2 [E,G,] [E,A,]2 [E,G,] | %6
 [A,,E,]2 [A,,E,] [B,,E,]2 [A,,E,] | [E,G,E]3 [B,,F,]2 [B,,A,] | [E,G,]3- [E,G,]2 [E,B,D] | %9
 [A,,A,]2 [A,,E,] [A,,A,]2 [A,,A,] | [A,,E,]3- [A,,E,]2 [A,,E,] | [A,E]2 [A,E] [G,B,E]2 [A,CE] | %12
 [A,CE]3- [A,CE]2 [A,E] | [E,B,]2 [E,G,] [E,A,]2 [E,G,] | [E,A,]3 [E,G,]3 | E,3 F,3 | E,6 | %17
 [A,,A,][A,,A,][A,,A,] [B,,A,]2 [B,,A,] | [E,G,]3 E,3 | [E,G,D][E,A,E][E,G,D] [A,,A,]2 [A,,A,] | %20
[M:5/8] [A,,A,]-[A,,A,]- [A,,A,]3 |[M:1/8] [A,,A,] |[M:3/4] [D,A,]2 [D,A,] [D,D]2 [D,A,] | %23
 [A,,A,]2 [A,,A,] [A,,A,]2 [A,,A,] | [E,G,E]3 [E,G,E]3 | [A,E]2 [F,B,] [E,B,]3 | %26
 [A,,A,][A,,A,] [A,,A,] [B,,A,]2 [B,,A,] | [E,G,]3 E,3 | [E,G,D][E,A,E] [E,G,D] [A,,A,]2 [A,,A,] | %29
[M:5/8] [A,,A,]-[A,,A,]- [A,,A,]3 |[M:1/8] [A,,A,] |[M:3/4] [D,A,]2 [B,,E,] [A,,E,]2 [E,G,D] | %32
 [A,E]2 [A,B,E] [A,CA]2[K:bass] D, | E,4 z E |[M:5/8] A,-A,- A,3 |] %35
V:3
 x6 | x6 | x6 | x6 | x6 | x6 | x6 | z3 =D2 D | E3- E2 E | x6 | x6 | x6 | x6 | x6 | x6 | C3 D3 | %16
 C6 | x6 | z3 G,3 | x6 |[M:5/8] x5 |[M:1/8] x |[M:3/4] x6 | x6 | x6 | x6 | x6 | z2 z G,3 | x6 | %29
[M:5/8] x5 |[M:1/8] x |[M:3/4] x6 | x6 | x6 |[M:5/8] x5 |] %35
V:4
 x6 | x6 | x6 | x6 | x6 | x6 | x6 | x6 | x6 | x6 | x6 | x6 | x6 | x6 | x6 | A,,6- | A,,6 | x6 | %18
 x6 | x6 |[M:5/8] x5 |[M:1/8] x |[M:3/4] x6 | x6 | x6 | x6 | x6 | x6 | x6 |[M:5/8] x5 |[M:1/8] x | %31
[M:3/4] x6 | x5[K:bass] x | z2 z E,3 |[M:5/8] x5 |] %35

